images/ic-funct-impr.svg

<svg height="22" viewBox="0 0 22 22" width="22" xmlns="http://www.w3.org/2000/svg"><g fill="none" fill-rule="evenodd" transform="translate(-1 -1)"><path d="m0 0h24v24h-24z"/><g fill-rule="nonzero"><path d="m11 16c0 .55.45 1 1 1s1-.45 1-1v-2h-2zm-8 0c0 .55.45 1 1 1s1-.45 1-1v-2h-2zm16 0c0 .55.45 1 1 1s1-.45 1-1v-2h-2z" fill="#e0be41"/><path d="m5 2c0-.55-.45-1-1-1s-1 .45-1 1v4h-2v10c0 1.3.84 2.4 2 2.82v4.18h2v-4.18c1.16-.42 2-1.52 2-2.82v-10h-2zm0 14c0 .55-.45 1-1 1s-1-.45-1-1v-2h2zm0-4h-2v-4h2zm8-10c0-.55-.45-1-1-1s-1 .45-1 1v4h-2v10c0 1.3.84 2.4 2 2.82v4.18h2v-4.18c1.16-.42 2-1.52 2-2.82v-10h-2zm0 14c0 .55-.45 1-1 1s-1-.45-1-1v-2h2zm0-4h-2v-4h2zm8-6v-4c0-.55-.45-1-1-1s-1 .45-1 1v4h-2v10c0 1.3.84 2.4 2 2.82v4.18h2v-4.18c1.16-.42 2-1.52 2-2.82v-10zm0 10c0 .55-.45 1-1 1s-1-.45-1-1v-2h2zm0-4h-2v-4h2z" fill="#3e4241"/></g></g></svg>

<?xml version="1.0" encoding="UTF-8"?>
<svg width="22px" height="22px" viewBox="0 0 22 22" version="1.1" xmlns="http://www.w3.org/2000/svg" xmlns:xlink="http://www.w3.org/1999/xlink">
    <!-- Generator: Sketch 54.1 (76490) - https://sketchapp.com -->
    <title>ic-funct-impr</title>
    <desc>Created with Sketch.</desc>
    <g id="Page-1" stroke="none" stroke-width="1" fill="none" fill-rule="evenodd">
        <g id="ic-funct-impr" transform="translate(-1.000000, -1.000000)">
            <polygon id="Path" points="0 0 24 0 24 24 0 24"></polygon>
            <path d="M11,16 C11,16.55 11.45,17 12,17 C12.55,17 13,16.55 13,16 L13,14 L11,14 L11,16 Z M3,16 C3,16.55 3.45,17 4,17 C4.55,17 5,16.55 5,16 L5,14 L3,14 L3,16 Z M19,16 C19,16.55 19.45,17 20,17 C20.55,17 21,16.55 21,16 L21,14 L19,14 L19,16 Z" id="Shape" fill="#E0BE41" fill-rule="nonzero"></path>
            <path d="M5,2 C5,1.45 4.55,1 4,1 C3.45,1 3,1.45 3,2 L3,6 L1,6 L1,16 C1,17.3 1.84,18.4 3,18.82 L3,23 L5,23 L5,18.82 C6.16,18.4 7,17.3 7,16 L7,6 L5,6 L5,2 Z M5,16 C5,16.55 4.55,17 4,17 C3.45,17 3,16.55 3,16 L3,14 L5,14 L5,16 Z M5,12 L3,12 L3,8 L5,8 L5,12 Z M13,2 C13,1.45 12.55,1 12,1 C11.45,1 11,1.45 11,2 L11,6 L9,6 L9,16 C9,17.3 9.84,18.4 11,18.82 L11,23 L13,23 L13,18.82 C14.16,18.4 15,17.3 15,16 L15,6 L13,6 L13,2 Z M13,16 C13,16.55 12.55,17 12,17 C11.45,17 11,16.55 11,16 L11,14 L13,14 L13,16 Z M13,12 L11,12 L11,8 L13,8 L13,12 Z M21,6 L21,2 C21,1.45 20.55,1 20,1 C19.45,1 19,1.45 19,2 L19,6 L17,6 L17,16 C17,17.3 17.84,18.4 19,18.82 L19,23 L21,23 L21,18.82 C22.16,18.4 23,17.3 23,16 L23,6 L21,6 Z M21,16 C21,16.55 20.55,17 20,17 C19.45,17 19,16.55 19,16 L19,14 L21,14 L21,16 Z M21,12 L19,12 L19,8 L21,8 L21,12 Z" id="Shape" fill="#3E4241" fill-rule="nonzero"></path>
        </g>
    </g>
</svg>
